packages/sources/icons/src/vitamix/refund-fill.svg

<svg width="16" height="16" viewBox="0 0 16 16" fill="none" xmlns="http://www.w3.org/2000/svg">
<path fill-rule="evenodd" clip-rule="evenodd" d="M14.6667 4.66667H1.33334V2.66667C1.33334 2.29848 1.63182 2 2.00001 2H14C14.3682 2 14.6667 2.29848 14.6667 2.66667V4.66667ZM14.6667 6V13.3333C14.6667 13.7015 14.3682 14 14 14H2.00001C1.63182 14 1.33334 13.7015 1.33334 13.3333V6H14.6667ZM7.33334 7.66667V9.33333H11.3333V10.6667H4.33334L7.33334 7.66667Z" fill="#001018"/>
</svg>

<svg width="16" height="16" fill="none" xmlns="http://www.w3.org/2000/svg"><path fill-rule="evenodd" clip-rule="evenodd" d="M14.667 4.667H1.333v-2C1.333 2.298 1.632 2 2 2h12c.368 0 .667.298.667.667v2zm0 1.333v7.333A.667.667 0 0 1 14 14H2a.667.667 0 0 1-.667-.667V6h13.334zM7.333 7.667v1.666h4v1.334h-7l3-3z" fill="#001018"/></svg>
